X:1
T:Ecco il Signor
T:Ecco il Signor
T:Giovanni Pietro Biandra
T:Source : Madrigaleti a 1, 2 e 3 voci. Libro primo---Venezia---B.Magni (Gardano)---1626. Editor André Vierendeels (11/03/15).
C:Giovanni Pietro Biandra
%%score [ 1 2 ] 3
L:1/8
Q:1/4=80
M:4/4
K:F
V:1 bass nm="Basso 1" snm="B 1"
V:2 bass nm="Basso 2" snm="B 2"
V:3 bass nm="BC" snm="BC"
V:1
 z8 | z2 A,4 G,F, | E,3 E, D,D, B,2- | B,2 A,G, A,3 A, | G,2 G,2 D4- | D2 CB, C2 D/C/B,/A,/ | %6
w: |Ec- co'il Si-|gnor in Cro- ce, ec-|* co'il Si- gnor in|Cro- ce, as-|* pro mio co- * * * *|
 B,4 A,4 | z2 G,4 F,E, | D,3 D, C,2 C,2 | z8 | z2 A,2 A,A,A,A, | A,2 G,2 A,2 A,2 | B,2 B,2 z2 C2- | %13
w: * re,|ec- co la|lan- cia chio- di||che'l sen le pal- me'i|pie- di'e l'au- reo|cri- ne tin-|
 C2 =B,A, B,4 | C2 C,2 ^C,4 | D,2 E,4 E,2 | E,4 D,4 | z8 | z4 z2 A,2 | =B,4 C2 C2- | C2 C2 =B,4 | %21
w: * to ha di|san- gu'e tu|non hai do-|lo- re,||e|tu non hai|_ do- lo-|
 A,8 | z4 B,3 B, | A,4 G,3 G, | F,2 F,E, E,2 E,2 | z8 | z8 | z2 D,2 =B,,2 B,,2 | %28
w: re,|ba- cia-|li, ba- cia-|l'in- gra- ta boc- ca,|||oc- chi'em- pi|
 C,2 C,D, E,F,G,A, | B,2 B,A, B,2 C2 | A,2 A,2 z2 F,F, | F,2 F,F, F,3 F, | F,2 F,2 E,2 E,2 | %33
w: fuo- ri ver- sa- t'un lar- go|pian- to e voi mes-|chi- ne, a- do-|rat el mie mem- bra|sen- za fi- ne,|
 z2 ^F,2 G,F,G,A, | ^F,2 B,4 A,G, | G,2 ^F,2 G,4 | z2 F,4 E,D, | E,2 C,2 CB,B,A, | %38
w: pie- ne di ri- ve-|renz' et di ti-|mo- * re,|ec- co le|man che so- pra gl'ait' a-|
 A,2 A,D, B,,2 A,,2 | G,,4 F,,4 | z2 C,D, E,/D,/C,/D,/ E,/F,/G,/E,/ | F,2 A,4 G,2 | %42
w: bis- si toc- car la|ter- ra|e spie- gar _ _ _ _ _ _ _|_ l'a- ria'ei|
 F,/E,/F,/G,/ A,/G,/A,/F,/ G,2 G,2 | z2 C4 B,2 | A,2 A,G, F,2 E,2 | D,2 C,2 B,,4 | A,,8 | %47
w: ven- * * * * * * * * ti|ei Ciel|fen- no le stel- le'il|fuo- co'e l'ac-|que|
 z2 A,A, A,2 A,G, | A,2 A,2 C4- | C2 B,2 A,2 A,2 | z2 E,2 ^F,G,G,F, | G,4 z2 A,2 | F,3 E, D,4- | %53
w: ec- co gl'oc- chi'el co-|sta- to'ei pie|_ tra- fis- si|che reg- go- no'e la-|vo gl'hu-|man vi- ven-|
 D,2 ^C,2 D,4 | D,2 G,2 E,2 F,G, | A,4 G,4 | G,2 C2 A,2 B,C | D4 C4 | z8 | E,2 A,2 ^F,2 G,A, | %60
w: * * ti,|on- de'il re- gno di|Plu- to,|on- de'l re- gno di|Plu- to||on- de'l re- gno di|
 =B,4 G,4 | z4 z2 B,2 | A,G, F,E, D,2 C,2 | B,,4 A,,4 | z2 A,2 A,G, F,E, | D,2 E,2 F,E, F,G, | %66
w: Plu- to|à|ter- * * * * ra|giac- que,|à ter- * * *|* ra giac- * * *|
 E,8 |] %67
w: que.|
V:2
 z2 A,4 G,F, | E,3 E, D,2 D,2 | z4 z2 G,2- | G,2 ^F,E, F,2 F,2 | G,2 G,2 B,4- | %5
w: Ec- co'il Si-|gnor in Cro- ce,|ec-|* co'il Si- gnor in|Cro- ce, as-|
 B,2 A,G, A,2 B,/A,/G,/F,/ | G,4 ^F,4 | z8 | z4 z2 C2- | C2 B,A, B,A, B,C | A,2 ^F,2 F,F,F,F, | %11
w: * pro mio co- * * * *|* re,||ec-|* co le spi- * * *|ne che'l sé le pal- me'i|
 ^F,2 G,2 G,2 F,2 | G,2 G,2 _E,4- | E,2 D,C, D,4 | C,4 z4 | z8 | z4 z2 D,2 | ^F,4 G,2 A,2- | %18
w: pie- di'e l'au- reo|cri- ne tin-|* t'ha di san-|gue||e|tu non hai|
 A,2 A,2 A,4 | G,2 D,2 E,2 G,2 | F,G, A,4 ^G,2 | A,8 | z2 A,3 A, G,2- | G,2 F,3 F, E,2 | %24
w: _ do- lo-|re, e tu non|hai do- lo- *|re,|ba- cia- li,|_ ba- cia- l'in-|
 E,2 D,2 ^C,2 C,2 | z2 D,2 =B,,2 B,,2 | C,2 C,D, E,F,G,A, | B,/A,/G,/F,/ G,2 D,4 | z8 | %29
w: gra- ta boc- ca,|oc- chi'em- pi|fuo- ri ver- sa- t'un lar- go|pian- * * * * to,||
 z2 ^F,2 G,2 A,2 | ^F,2 F,2 z2 D,D, | D,2 D,D, D,2 D,2 | ^C,2 D,2 D,2 C,2 | z2 A,2 B,A,B,C | %34
w: e voi mes-|chi- ne, a- do-|rat el mie mem- bra|sen- za fi- ne,|pie- ne di ri- ve-|
 A,2 D4 CB, | A,4 G,4 | z8 | z8 | z8 | z8 | z8 | z8 | z8 | z8 | z8 | z8 | z8 | z2 F,F, F,2 F,E, | %48
w: renz' et di ti-|mo- re,||||||||||||ec- co gl(oc- chi'el co-|
 F,2 F,2 A,4- | A,2 G,2 F,4 | E,4 z2 D,2 | E,F,F,E, F,4 | z2 A,2 F,3 E, | E,4 D,4 | z8 | %55
w: sta- toei pie|_ tra- fis-|si che|reg- go- no' la- vo|gl'hu- man vi-|ven- ti,||
 A,,2 D,2 =B,,2 C,D, | E,4 D,4 | z2 B,2 A,G, F,E, | D,2 C,2 B,,4 | A,,4 z4 | D,2 G,2 E,2 F,G, | %61
w: on- de'il re- gno di|Plu- to|à ter- * * *|* ra giac-|que,|on- de'il re- gno di|
 A,4 G,4 | z8 | z4 z2 A,2 | A,G, F,E, D,3 E, | F,2 E,2 D,4 | A,,8 |] %67
w: Plu- to||à|ter- * * * * *|* ra giac-|que|
V:3
 A,,4 F,,2 G,,2 | A,,4 D,2 G,,2 | A,,4 D,2 G,,2 | D,8 | G,,4 G,,4 |"^6" _E,4 C,4 | D,8 | %7
 G,,4 E,,2 F,,2 | G,,4 C,4 | G,,8 | D,8 | D,2 =B,,2 C,2 D,2 |"^5     b6" G,,8 | G,,8 | C,4 A,,4 | %15
"^5   6" G,,4 A,,2 G,,2 | A,,4 D,4- | D,4 =B,,2 C,2 | D,2 C,2 D,4 | G,,4 C,4 | D,4 E,4 | A,,8 | %22
 D,8 | D,4 =B,,2 C,2 | A,,4 A,,4 | ^F,,4 G,,4 | C,8 | G,,4 =B,,4 | C,8 | G,,2 D,2 G,,2 C,2 | %30
 D,4 B,,4- | B,,2 A,,G,, F,,3 G,, | A,,2 B,,2 G,,2 A,,2 | D,8 | D,2 G,,2 B,,2 C,2 | D,4 G,,2 C,2 | %36
 F,,4 G,,4 | C,4 C,4 | D,4 B,,2 A,,2 | G,,4 F,,4 | C,8 | F,,8 | F,4 C,4 | A,,8 | F,,8 | G,,8 | %46
 A,,8 | D,8 | D,4 A,,4 | C,4 D,4 | A,,4 D,4 | C,4 F,,4 | F,,4 B,,2 G,,2 | A,,4 D,4 | =B,,4 C,4 | %55
 A,,2 ^F,,2 G,,4 | C,4 D,4 | B,,4 F,,4 | G,,8 | A,,4 D,4 | G,,4 C,4 | F,,4 C,2 G,,2 | D,6 C,2 | %63
 B,,4 A,,4 | D,8 | D,8 | D,8 |] %67

